logos/unbounce-icon.svg

<?xml version="1.0" encoding="UTF-8"?>
<svg width="256px" height="256px" viewBox="0 0 256 256" version="1.1" xmlns="http://www.w3.org/2000/svg" xmlns:xlink="http://www.w3.org/1999/xlink" preserveAspectRatio="xMidYMid">
    <g>
        <path d="M128,0 C198.736842,0 256,57.2631579 256,128 C256,198.736842 198.736842,256 128,256 C57.2631579,256 0,198.736842 0,128 C0,57.2631579 57.2631579,0 128,0 Z M157.834586,42.3458647 C152.541353,40.6616541 146.766917,42.8270677 143.879699,47.3984962 C138.827068,46.4360902 133.774436,45.9548872 128.481203,45.9548872 C83.0075188,45.9548872 46.4360902,82.7669173 46.4360902,128 C46.4360902,159.759398 64.481203,187.428571 90.9473684,200.902256 C90.2255639,206.195489 93.593985,211.488722 98.887218,213.413534 C100.090226,213.894737 101.533835,214.135338 102.736842,214.135338 C104.661654,214.135338 106.586466,213.654135 108.270677,212.691729 C110.195489,211.729323 111.639098,210.285714 112.842105,208.360902 C113.323308,207.639098 113.804511,206.917293 114.045113,205.954887 L114.045113,205.954887 L123.428571,178.285714 L156.150376,85.1729323 L165.533835,57.5037594 C165.774436,56.7819549 166.015038,55.8195489 166.015038,54.8571429 C166.255639,52.2105263 165.533835,49.8045113 164.330827,47.6390977 C162.887218,45.2330827 160.721805,43.3082707 157.834586,42.3458647 Z M181.172932,65.6842105 L169.864662,99.8496241 C175.398496,107.789474 178.526316,117.654135 178.526316,128 C178.526316,150.135338 164.571429,168.661654 145.082707,175.639098 L145.082707,175.639098 L133.774436,209.804511 C176.360902,206.676692 209.804511,171.308271 210.045113,128 C210.045113,102.977444 198.736842,80.6015038 181.172932,65.6842105 L181.172932,65.6842105 Z M128,77.4736842 C129.443609,77.4736842 131.12782,77.4736842 132.571429,77.7142857 L132.571429,77.7142857 L100.81203,170.586466 C86.8571429,161.443609 77.4736842,145.804511 77.4736842,128 C77.4736842,100.090226 100.090226,77.4736842 128,77.4736842 Z" fill="#303030"></path>
    </g>
</svg>

<svg preserveAspectRatio="xMidYMid" viewBox="0 0 256 256" xmlns="http://www.w3.org/2000/svg">
  <path fill="#303030" d="M128 0c70.737 0 128 57.263 128 128s-57.263 128-128 128S0 198.737 0 128 57.263 0 128 0Zm29.835 42.346c-5.294-1.684-11.068.481-13.955 5.052a81.484 81.484 0 0 0-15.399-1.443c-45.473 0-82.045 36.812-82.045 82.045 0 31.76 18.045 59.429 44.511 72.902-.721 5.293 2.647 10.587 7.94 12.512 1.203.48 2.647.721 3.85.721 1.925 0 3.85-.48 5.534-1.443 1.924-.963 3.368-2.406 4.571-4.331.481-.722.963-1.444 1.203-2.406l9.384-27.67 32.721-93.112 9.384-27.67c.24-.721.481-1.683.481-2.646.24-2.646-.481-5.052-1.684-7.218-1.444-2.406-3.61-4.33-6.496-5.293Zm23.338 23.338L169.865 99.85c5.533 7.94 8.661 17.804 8.661 28.15 0 22.135-13.955 40.662-33.443 47.64l-11.309 34.165c42.587-3.128 76.03-38.497 76.271-81.805 0-25.023-11.308-47.398-28.872-62.316ZM128 77.474c1.444 0 3.128 0 4.571.24l-31.759 92.872C86.857 161.444 77.474 145.805 77.474 128c0-27.91 22.616-50.526 50.526-50.526Z"/>
</svg>
